!!!!SEGMENT: pl-kk--kk-i-501_anonim--tantum-ergo.krn
!!!cenid: 18xx:1341
!!!COM: Anonim
!!!COM-rismID: pe30004985
!!!CDT:
!!!CNT:
!!!OTL: Tantum ergo
!!!PDT:
!!!AGN: Sacred
!!!SMS-siglum: PL-Kk
!!!SMS-shelfmark: Kk.I.501
!!!SMS-shelfwork: W
!!!SMS-variant:
!!!SMS-altvar:
!!!NIFC-rismSourceID: 1001136831
!!!NIFC-rismChildID: 1001136831
!!!NIFC-islandoraID: pl-kk:14674
!!!URL-pdf-islandora: https://repozytorium.nifc.pl/islandora/object/pl-kk%3A14674/datastream/PDF/view
!!!URL-scan: https://polish.musicsources.pl/pl/lokalizacje/galeria/rekopisy/6110 @EN{Scan on Polish Music Sources Website} @PL{Skany w portalu Dziedzictwo Muzyki Polskiej w otwartym dostępie}
!!!ONB-nifc:
!!!AIN: 2 empty 2 tenor
!!!key:
**kern	**text	**dynam	**kern	**text	**dynam	**kern	**text	**dynam	**kern	**text	**dynam
*part4	*part4	*part4	*part3	*part3	*part3	*part2	*part2	*part2	*part1	*part1	*part1
*staff4	*staff4	*	*staff3	*staff3	*	*staff2	*staff2	*	*staff1	*staff1	*
*Iempty	*	*	*Iempty	*	*	*Itenor	*	*	*Itenor	*	*
*I"Basſo 2.do	*	*	*I"Basſo 1mo	*	*	*I"Tenor 2do	*	*	*I"Tenor 1mo	*	*
*I'B 2	*	*	*I'B 1	*	*	*I'T 2	*	*	*I'T 1	*	*
*group1	*	*	*group1	*	*	*group1	*	*	*group1	*	*
*clefF4	*	*	*clefF4	*	*	*clefG2	*	*	*clefG2	*	*
*k[]	*	*	*k[]	*	*	*k[]	*	*	*k[]	*	*
*C:	*	*	*C:	*	*	*C:	*	*	*C:	*	*
*M4/4	*	*	*M4/4	*	*	*M4/4	*	*	*M4/4	*	*
*met(c)	*	*	*met(c)	*	*	*met(c)	*	*	*met(c)	*	*
=1	=1	=1	=1	=1	=1	=1	=1	=1	=1	=1	=1
*2\right	*	*	*2\right	*	*	*2\right	*	*	*2\right	*	*
!LO:TX:t=P:global:problem=określenia dynamiczne notowane na pięciolinii	!	!	!LO:TX:t=P:global:problem=określenia dynamiczne notowane na pięciolinii	!	!	!LO:TX:t=P:global:problem=określenia dynamiczne notowane na pięciolinii	!	!	!LO:TX:t=P:global:problem=określenia dynamiczne notowane na pięciolinii	!	!
!LO:TX:a:B:t=Allegretto	!	!	!LO:TX:a:B:t=Allegretto	!	!	!LO:TX:a:B:t=Allegretto	!	!	!LO:TX:a:B:t=Allegretto	!	!
(2C\	Tan-	f	(2G\	Tan-	f	(2cc\	Tan-	f	(2ee\	Tan-	f
!LO:TX:t=P:problem=4\right&colon; global	!	!	!LO:TX:t=P:problem=4\right&colon; global	!	!	!LO:TX:t=P:problem=4\right&colon; global	!	!	!LO:TX:t=P:problem=4\right&colon; global	!	!
4F\)	.	.	4F\)	.	.	4b\)	.	.	4dd\)	.	.
4E\	-tum	.	4E\	-tum	.	4cc\	-tum	.	4cc\	-tum	.
=2	=2	=2	=2	=2	=2	=2	=2	=2	=2	=2	=2
(2BB/	er-	.	2G\	er-	.	2dd\	er-	.	(4.gg\	er-	.
!	!	!	!	!	!	!	!	!	!LO:TX:t=P:problem=8\right&colon; global	!	!
.	.	.	.	.	.	.	.	.	8ff\)	.	.
4C/)	.	.	2G\	-go	.	2cc\	-go	.	2ee\	-go	.
4BB-X/	-go	.	.	.	.	.	.	.	.	.	.
=3	=3	=3	=3	=3	=3	=3	=3	=3	=3	=3	=3
(4AA/	Sa-	.	2F\	Sa-	.	2cc\	Sa-	.	2.ff\	Sa-	.
4AA-X/)	.	.	.	.	.	.	.	.	.	.	.
(4GG/	-cra-	.	2G\	-cra-	.	2cc\	-cra-	.	.	.	.
4G\)	.	.	.	.	.	.	.	.	4ee\	-cra-	.
=4	=4	=4	=4	=4	=4	=4	=4	=4	=4	=4	=4
2F#X\	-men-	.	2A\	-men-	.	2cc\	-men-	.	(4ee\	-men-	.
.	.	.	.	.	.	.	.	.	4dd\)	.	.
2F#\	-tum	.	2A\	-tum	.	2cc\	-tum	.	2dd\	-tum	.
=5	=5	=5	=5	=5	=5	=5	=5	=5	=5	=5	=5
(2Fn\	ve-	p	(2G\	ve-	p	2.b\	ve-	p	(2dd\	Ve-	p
4E\)	.	.	4G#X\)	.	.	.	.	.	4ee\)	.	.
4E\	-ne-	.	4G#\	-ne-	.	4b\	-ne-	.	4b\	-ne-	.
!LO:LB:g=original	!	!	!	!	!	!	!	!	!	!	!
=6	=6	=6	=6	=6	=6	=6	=6	=6	=6	=6	=6
(2AA/	-re-	.	(4A\	-re-	.	2.a\	-re-	.	(2cc\	-re-	.
!	!	!	!	!	!LO:DY:a	!	!	!	!	!	!
.	.	.	4E\	.	<	.	.	.	.	.	.
4D\)	.	.	4D\)	.	.	.	.	.	4ff\)	.	<
!	!	!	!	!	!	!LO:TX:t=P:problem=8\right&colon; global	!	!	!	!	!
4D\	-mur	.	4D\	-mur	[	(8b\L	-mur	.	4ff\	-mur	.
.	.	.	.	.	.	8a\J)	.	.	.	.	[
!	!	!	!LO:LB:g=original	!	!	!LO:LB:g=original	!	!	!LO:LB:g=original	!	!
=7	=7	=7	=7	=7	=7	=7	=7	=7	=7	=7	=7
2.E\	cer-	.	(4E\	cer-	.	4g#X/	cer-	.	2.ee\	cer-	.
.	.	.	8F#X\L	.	.	(8a/L	.	.	.	.	.
.	.	.	8G#X\J	.	.	(8b/J)	.	.	.	.	.
.	.	.	4A\)	.	.	4cc\)	.	.	.	.	.
4E\	-nu-	.	4A\	-nu-	.	4cc\	-nu-	.	4dd#X\	-nu-	.
=8	=8	=8	=8	=8	=8	=8	=8	=8	=8	=8	=8
2E\	-i	.	2G#X\	-i	.	2b\	-i	.	2ee\	-i	.
4E\	et	.	4G#\	et	.	4b\	et	.	4ee\	et	.
4E\	an-	.	4G#\	an-	.	4b\	an-	.	4ddn\	an-	.
=9	=9	=9	=9	=9	=9	=9	=9	=9	=9	=9	=9
2AA/	-ti-	.	2Gn\	-ti-	.	2a\	-ti-	.	(4dd\	-ti-	.
.	.	.	.	.	.	.	.	.	4cc#X\)	.	.
2AA/	-quum	.	2G\	-quum	.	2a\	-guum	.	(4cc#\	-quum	.
.	.	.	.	.	.	.	.	.	4ee\)	.	.
=10	=10	=10	=10	=10	=10	=10	=10	=10	=10	=10	=10
(2C#X\	do-	.	(4E\	do-	.	2.a\	do-	.	(2ggn\	do-	.
.	.	.	2A\)	.	.	.	.	.	.	.	.
4D\)	.	.	.	.	.	.	.	.	4ff\)	.	.
4G\	-cu-	.	4A\	-cu-	.	4cc#X\	-cu-	.	4ee\	-cu-	.
=11	=11	=11	=11	=11	=11	=11	=11	=11	=11	=11	=11
(4G\	-men-	.	2A\	-men-	.	(4cc#X\	-men-	.	(4ee\	-men-	.
4F\)	.	.	.	.	.	4dd\)	.	.	4dd\)	.	.
2F\	-tum	.	2A\	-tum	.	2dd\	-tum	.	2dd\	-tum	.
!LO:LB:g=original	!	!	!	!	!	!	!	!	!	!	!
=12	=12	=12	=12	=12	=12	=12	=12	=12	=12	=12	=12
4r	.	.	4r	.	.	4r	.	.	2.ff\	no-	.
(4D\	no-	.	(4A\	no-	.	(4a/	no-	.	.	.	.
4BBn/)	.	.	4G\)	.	.	4dd/)	.	.	.	.	.
4Cn/	-vo	.	4G\	-vo	.	4ccn/	-vo	.	4ee\	-vo	.
!	!	!	!LO:LB:g=original	!	!	!LO:LB:g=original	!	!	!LO:LB:g=original	!	!
=13	=13	=13	=13	=13	=13	=13	=13	=13	=13	=13	=13
2D\	ce-	.	2G\	ce-	.	2b\	ce-	.	(4ee\	ce-	.
.	.	.	.	.	.	.	.	.	4dd\	.	.
(4E\	-dat	.	2G\	-dat	.	2a#X\	-dat	.	4cc#X\	.	.
4C#X\)	.	.	.	.	.	.	.	.	4ee\)	-dat	.
=14	=14	=14	=14	=14	=14	=14	=14	=14	=14	=14	=14
2.D\	ri-	.	(4G\	ri-	.	(2b\	ri-	.	2.dd\	ri-	.
.	.	.	4G#X\	.	.	.	.	.	.	.	.
.	.	.	4.A\)	.	.	4.cc\)	.	.	.	.	.
4D\	-tu-	.	.	.	.	.	.	.	(8ee\L	-tu-	.
.	.	.	8A\	-tu-	.	8cc\	-tu-	.	8ff#X\J)	.	.
=15	=15	=15	=15	=15	=15	=15	=15	=15	=15	=15	=15
4GG/	-i	.	4Gn\	-i	.	4b\	-i	.	4gg\	-i	.
4r	.	.	4r	.	.	4r	.	.	4r	.	.
4GG/	prae-	f	4D\	prae-	f	4b\	prae-	f	4gg\	prae-	f
4GG/	-stet	.	4G\	-stet	.	4b\	-stet	.	4dd\	-stet	.
=16	=16	=16	=16	=16	=16	=16	=16	=16	=16	=16	=16
2C^>/	fi-	.	2G^\	fi-	.	2cc^\	fi-	.	2ee\	fi-	.
2AA^>/	-des	.	2A^\	-des	.	2cc^\	-des	.	2ee\	-des	.
!LO:LB:g=original	!	!	!	!	!	!	!	!	!	!	!
=17	=17	=17	=17	=17	=17	=17	=17	=17	=17	=17	=17
(2D\	sup-	.	(2A\	sup-	.	(2dd\	sup-	.	(2ff\	sup-	.
4G\)	.	.	4G\)	.	.	4cc\)	.	.	4ee\)	.	.
4F\	-ple-	.	4G\	-ple-	.	4b\	-ple-	.	4dd\	-ple-	.
=18	=18	=18	=18	=18	=18	=18	=18	=18	=18	=18	=18
(2.E\	-men-	.	(2G\	-men-	.	(2cc\	-men-	.	1gg	-men-	.
.	.	.	2B-X\)	.	.	4cc#X\	.	.	.	.	.
4D\)	.	.	.	.	.	4dd\)	.	.	.	.	.
!	!	!	!LO:LB:g=original	!	!	!LO:LB:g=original	!	!	!LO:LB:g=original	!	!
=19	=19	=19	=19	=19	=19	=19	=19	=19	=19	=19	=19
2C#X\	-tum	.	2A\	-tum	.	2ee\	-tum	.	2gg\	-tum	.
4D\	sen-	.	4A\	sen-	.	4dd\	sen-	.	4ff\	sen-	.
4G\	-su-	.	4B-X\	-su-	.	4cc#X\	-su-	.	4ee\	-su-	.
=20	=20	=20	=20	=20	=20	=20	=20	=20	=20	=20	=20
2F\	-um	.	2A\	-um	.	2dd\	-um	.	2dd\	-um	.
2D\	de-	.	(4A\	de-	.	2a\	de-	.	2ff\	de-	.
.	.	.	4D\)	.	.	.	.	.	.	.	.
=21	=21	=21	=21	=21	=21	=21	=21	=21	=21	=21	=21
2.GG/	-fec-	.	(2D\	-fec-	.	2.g\	-fec-	.	(2b\	-fec-	.
.	.	.	4E\)	.	.	.	.	.	4cc\)	.	.
4GG/	-tu-	.	4F\	-tu-	.	4g\	-tu-	.	4dd\	-tu-	.
=22	=22	=22	=22	=22	=22	=22	=22	=22	=22	=22	=22
1C;	-i	.	1E;	-i	.	1g;	-i	.	1cc;	-i	.
!LO:LB:g=original	!	!	!	!	!	!	!	!	!	!	!
=23||	=23||	=23||	=23||	=23||	=23||	=23||	=23||	=23||	=23||	=23||	=23||
2r	.	.	(1F	A-	.	1a	A-	.	(1cc	A-	.
(>2C/	A-	.	.	.	.	.	.	.	.	.	.
=24	=24	=24	=24	=24	=24	=24	=24	=24	=24	=24	=24
2AA/	.	.	1A)	.	.	1cc	.	.	1ff)	.	.
2FF/)	.	.	.	.	.	.	.	.	.	.	.
=25	=25	=25	=25	=25	=25	=25	=25	=25	=25	=25	=25
1C	-men.	.	1G;	-men	.	1cc;	-men	.	1ee;	-men.	.
==	==	==	==	==	==	==	==	==	==	==	==
*-	*-	*-	*-	*-	*-	*-	*-	*-	*-	*-	*-
!!!system-decoration: [(g1)]
!!!RDF**kern: >= above
!!!RDF**kern: <= below
!!!ENC: Anna Matuszewska
!!!END: 2021-01-02
!!!ENC: Mateusz Solarz
!!!END: 2020-12-31
!!!YEC: Copyright 2022 Narodowy Instytut Fryderyka Chopina (https://polishscores.org)
!!!YEM: License CC-BY-4.0 (https://creativecommons.org/licenses/by/4.0)
